svg/system/fire_fill.svg

<?xml version="1.0" encoding="UTF-8"?>
<svg width="24px" height="24px" viewBox="0 0 24 24" version="1.1" xmlns="http://www.w3.org/2000/svg" xmlns:xlink="http://www.w3.org/1999/xlink">
    <title>fire_fill</title>
    <g id="页面-1" stroke="none" stroke-width="1" fill="none" fill-rule="evenodd">
        <g id="System" transform="translate(-480.000000, -48.000000)" fill-rule="nonzero">
            <g id="fire_fill" transform="translate(480.000000, 48.000000)">
                 <path d="M24,0 L24,24 L0,24 L0,0 L24,0 Z M12.5934901,23.257841 L12.5819402,23.2595131 L12.5108777,23.2950439 L12.4918791,23.2987469 L12.4918791,23.2987469 L12.4767152,23.2950439 L12.4056548,23.2595131 C12.3958229,23.2563662 12.3870493,23.2590235 12.3821421,23.2649074 L12.3780323,23.275831 L12.360941,23.7031097 L12.3658947,23.7234994 L12.3769048,23.7357139 L12.4804777,23.8096931 L12.4953491,23.8136134 L12.4953491,23.8136134 L12.5071152,23.8096931 L12.6106902,23.7357139 L12.6232938,23.7196733 L12.6232938,23.7196733 L12.6266527,23.7031097 L12.609561,23.275831 C12.6075724,23.2657013 12.6010112,23.2592993 12.5934901,23.257841 L12.5934901,23.257841 Z M12.8583906,23.1452862 L12.8445485,23.1473072 L12.6598443,23.2396597 L12.6498822,23.2499052 L12.6498822,23.2499052 L12.6471943,23.2611114 L12.6650943,23.6906389 L12.6699349,23.7034178 L12.6699349,23.7034178 L12.678386,23.7104931 L12.8793402,23.8032389 C12.8914285,23.8068999 12.9022333,23.8029875 12.9078286,23.7952264 L12.9118235,23.7811639 L12.8776777,23.1665331 C12.8752882,23.1545897 12.8674102,23.1470016 12.8583906,23.1452862 L12.8583906,23.1452862 Z M12.1430473,23.1473072 C12.1332178,23.1423925 12.1221763,23.1452606 12.1156365,23.1525954 L12.1099173,23.1665331 L12.0757714,23.7811639 C12.0751323,23.7926639 12.0828099,23.8018602 12.0926481,23.8045676 L12.108256,23.8032389 L12.3092106,23.7104931 L12.3186497,23.7024347 L12.3186497,23.7024347 L12.3225043,23.6906389 L12.340401,23.2611114 L12.337245,23.2485176 L12.337245,23.2485176 L12.3277531,23.2396597 L12.1430473,23.1473072 Z" id="MingCute" fill-rule="nonzero"></path>
                <path d="M11.5144,2.14236 L10.2549,1.38672 L10.0135,2.83553 C9.63231,5.12379 8.06881,7.25037 6.34517,8.74417 C2.96986,11.6694 2.23067,14.8487 3.27601,17.4753 C4.27565,19.987 6.81362,21.7075 9.3895,21.9938 L9.98632,22.0601 C8.51202,21.1585 7.56557,19.0535 7.89655,17.4813 C8.22199,15.9355 9.33405,14.4869 11.4701,13.1519 L12.5472,12.4787 L12.9488,13.6836 C13.1863,14.3963 13.5962,14.968 14.0129,15.5492 C14.2138,15.8294 14.4162,16.1118 14.6018,16.4132 C15.2447,17.4581 15.415,18.6196 14.9999,19.7722 C14.6222,20.8211 13.9985,21.6446 13.1401,22.1016 L14.1105,21.9938 C16.5278,21.7252 18.3031,20.8982 19.4557,19.515 C20.5986,18.1436 20.9999,16.379 20.9999,14.4999 C20.9999,12.7494 20.2812,10.946 19.433,9.44531 C18.4392,7.68697 17.1418,6.22748 15.726,4.8117 C15.481,5.30173 15.5,5.5 14.9953,6.28698 C14.4118,4.73216 13.2963,3.21139 11.5144,2.14236 Z" id="路径" fill="#09244B"></path>
            </g>
        </g>
    </g>
</svg>

<svg xmlns="http://www.w3.org/2000/svg" width="24" height="24"><g fill="none" fill-rule="nonzero"><path d="M24 0v24H0V0h24ZM12.593 23.258l-.011.002-.071.035-.02.004-.014-.004-.071-.035c-.01-.004-.019-.001-.024.005l-.004.01-.017.428.005.02.01.013.104.074.015.004.012-.004.104-.074.012-.016.004-.017-.017-.427c-.002-.01-.009-.017-.017-.018Zm.265-.113-.013.002-.185.093-.01.01-.003.011.018.43.005.012.008.007.201.093c.012.004.023 0 .029-.008l.004-.014-.034-.614c-.003-.012-.01-.02-.02-.022Zm-.715.002a.023.023 0 0 0-.027.006l-.006.014-.034.614c0 .012.007.02.017.024l.015-.002.201-.093.01-.008.004-.011.017-.43-.003-.012-.01-.01-.184-.092Z"/><path fill="#09244B" d="m11.514 2.142-1.26-.755-.24 1.449C9.632 5.124 8.069 7.25 6.345 8.744 2.97 11.67 2.231 14.85 3.276 17.475c1 2.512 3.538 4.232 6.114 4.519l.596.066c-1.474-.901-2.42-3.006-2.09-4.579.326-1.546 1.438-2.994 3.574-4.33l1.077-.672.402 1.205c.237.712.647 1.284 1.064 1.865.2.28.403.563.589.864.643 1.045.813 2.207.398 3.36-.378 1.048-1.001 1.872-1.86 2.329l.97-.108c2.418-.269 4.193-1.096 5.346-2.479C20.599 18.144 21 16.379 21 14.5c0-1.75-.719-3.554-1.567-5.055-.994-1.758-2.291-3.218-3.707-4.633-.245.49-.226.688-.73 1.475a8.146 8.146 0 0 0-3.482-4.145Z"/></g></svg>
